!!!SOCIAL_FUNCTION:	songs used in the treatment of the sick
!!!PDT:	1929
!!!OTL: No_49_I_Will_Sit_and_Sing.krn
!!!REG: Southwest
!!!LANG: Non-Tone
!!!LING_GROUP: Uto-Aztecan
**kern
*staff1
=1-
*clefF4
*k[f#c#]
*M5/8
8.B\L
16A\K
8B\
8B\
8B\J
=2
4A\
8E\L
8B\
8A\J
=3||
*M4/8
4E\
4E\
=4!|:
*M5/8
8.B\L
16A\K
8B\
8B\
8A\J
=5
4E\
8D\L
8E\
8F#\J
=6||
*M3/8
8.E\L
16D\K
8E\J
=7||
*M4/8
4D\
4BB/
=8||
*M5/8
16E\LK
[8.E\
8E\]
8E\
8F#\J
=9
4E\
8D/L
8BB/
8BB/J
=10||
*M4/8
4E\
8E\
8E\
=11
8E\
8D\
4BB/
=12
8.D\L
16D\Jk
4D\
=13
2D\
==:|!
*-
